X: 773
T: Fırsat Bulsam Yâre Varsam
C: Tanburî Mustafa Çavuş
O: Turkey
F: http://compmusic.upf.edu/node/140
N: sehnaz--sarki--aksak--firsat_bulsam--tanburi_mustafa_cavus
N: makam= sehnaz
N: form= sarki
N: usul= aksak = 9/8
M: 9/8
L: 1/16
K: C _7/8B ^1/4f ^c ^g
Q: 1/4=204
%%MIDI tuningsystem comma53
a4 =g2^3/4f2 g4 ^1/4f2{g}e4 | =g4=f2 e2f4e2 d4  | \
w:  ARANAĞME  |   | 
c2d2 e2=f2 d4 =g2f2 e2 | ed e=fed cBAB =B=c^cd _7/8e=e^3/4f=g  | 
w:   |   | 
a4 =g2^3/4f2 g4 f2{g}e4 | =g4=f2 e2f4e2 d4  | \
w:   |   | 
c2d2 e2=f2 d2c'b a=gfe d2 | 
w:   | 
c2 BAe2 dccB BA.A6  | a4 =g2^3/4f2 g4 ^1/4f2{g}e4 | \
w:   |  ARANAĞME  | 
=g4=f2 e2f4e2 d4  | 
w:   | 
c2d2 e2=f2 d4 =g2f2 e2 | ed e=fed cBAB =B=c^cd _7/8e=e^3/4f=g  | 
w:   |   | 
a4 =g2^3/4f2 g4 f2{g}e4 | =g4=f2 e2f4e2 d4  | \
w:   |   | 
c2d2 e2=f2 d2c'b a=gfe d2 | 
w:   | 
c2 BAe2 dccB BA.A6  | .A4 A2A2 A4 a6 | \
w:   |  *  Fır sat  bul sam   | 
=b4=c'2 c'bba aga4=fe  | 
w:  yâ re  *  *  var *  *  *  sam   SAZ  | 
d4 d2d2 d4 a6 | =b4=c'2 c'bba aga3e=fg  | \
w:  *  Fır sat  bul sam   |  yâ re  *  *  var *  *  *  sam   SAZ  | 
a4 a2=b2 a2g2 f2e2 f2 | 
w:  *  Bi raz  der *  dim_  | 
a3gf2 g2f2 e2e6  | e6ef edcd ef=ge fd | \
w:  *  *  *  o na  *  yan  |  sam   SAZ  | 
.e.f .e.dc2 d2e2 ^2/4f2{a}=g2 =f2e2  | 
w:  *  *  *  *  Yâr_ e lin *  *  den   | 
z2e4a2 =g2=f2 e2d2 c2 | BA =G2A2 B2c2 d2e2 d2e2  | \
w:  halk  di lin *  den    |  *  *  *  Kur tu la *  mam   | 
d3c B2c2 cBBA A6 | 
w:  her  *  *  *  ne  *  *  *  yap  | 
A8zc Ace4a2  | a3=g ^3/4f2a2 g2a2 g4 f2 | \
w:  sam   SAZ  |  Yâr   | 
^3/4f=g a=b=c'2 baa3gba g2g^f  | 
w:  yâr  *  *  *  *  *  *  *  *  *  *  *  a  | 
^f6f=g f^3/4ede f3g eg | ^f4e2 ^3/4f2=g2 a2ag =fedc  | 
w:  man  SAZ  |  *  ya nı ma  *  gel    | 
d4 e2^3/4f2 =g2f2 {a}g2=f2 e2 | z2 e4 a2=g2 =f2e2 d2c2  | \
w:  *  Sen sin  be *  *  nim   |  gön lüm_ a *  lan    | 
BA=G2 A2B2 c2d2 e2d2 e2 | 
w:  *  *  *  Kim den  ki *  me   | 
d3^3/4cB2 c2cB BAA6  | A6AB =B=c^cd ^de=f^f =g^g | 
w:  şek *  *  *  va  *  *  *  e  |  dem   SAZ  | 
a4=g2 ^3/4f2g4^1/4f2 {g}e4  | =g4 =f2e2 f4 e2d4 | \
w:  ARANAĞME  |   | 
c2 d2e2 =f2d4=g2 f2e2  | ede=f edcB AB=B=c ^cd_7/8e=e ^3/4f=g | 
w:   |   | 
a4=g2 ^3/4f2g4f2 {g}e4  | =g4 =f2e2 f4 e2d4 | \
w:   |   | 
c2 d2e2 =f2d2 c'ba=g fed2  | 
w:   | 
c2BA e2dc cBBA .A6 | a4=g2 ^3/4f2g4^1/4f2 {g}e4  | \
w:   |  ARANAĞME  | 
=g4 =f2e2 f4 e2d4 | 
w:   | 
c2 d2e2 =f2d4=g2 f2e2  | ede=f edcB AB=B=c ^cd_7/8e=e ^3/4f=g | 
w:   |   | 
a4=g2 ^3/4f2g4f2 {g}e4  | =g4 =f2e2 f4 e2d4 | \
w:   |   | 
c2 d2e2 =f2d2 c'ba=g fed2  | 
w:   | 
c2BA e2dc cBBA .A6 | .A4A2 A2A4a6  | \
w:   |  *  Fır sat  bul sam   | 
=b4 =c'2c'b baag a4 =fe | 
w:  yâ re  *  *  var *  *  *  sam   SAZ  | 
d4d2 d2d4a6  | =b4 =c'2c'b baag a3e =fg | \
w:  *  Fır sat  bul sam   |  yâ re  *  *  var *  *  *  sam   SAZ  | 
a4a2 =b2a2 g2f2 e2f2  | 
w:  *  Bi raz  der *  dim_  | 
a3g f2g2 f2e2 e6 | e6 efed cdef =gefd  | \
w:  *  *  *  o na  *  yan  |  sam   SAZ  | 
.e.f.e.d c2d2 e2^2/4f2 {a}=g2=f2 e2 | 
w:  *  *  *  *  Yâr_ e lin *  *  den   | 
z2 e4 a2=g2 =f2e2 d2c2  | BA=G2 A2B2 c2d2 e2d2 e2 | \
w:  halk  di lin *  den    |  *  *  *  Kur tu la *  mam   | 
d3cB2 c2cB BAA6  | 
w:  her  *  *  *  ne  *  *  *  yap  | 
A8 zcAc e4 a2 | a3=g^3/4f2 a2g2 a2g4f2  | \
w:  sam   SAZ  |  Yâr   | 
^3/4f=ga=b =c'2ba a3g bag2 g^f | 
w:  yâr  *  *  *  *  *  *  *  *  *  *  *  a  | 
^f6 f=gf^3/4e def3geg  | ^f4 e2^3/4f2 =g2a2 ag=fe dc | 
w:  man  SAZ  |  *  ya nı ma  *  gel    | 
d4e2 ^3/4f2=g2 f2{a}g2 =f2e2  | z2e4a2 =g2=f2 e2d2 c2 | \
w:  *  Sen sin  be *  *  nim   |  gön lüm_ a *  lan    | 
BA =G2A2 B2c2 d2e2 d2e2  | 
w:  *  *  *  Kim den  ki *  me   | 
d3^3/4c B2c2 cBBA A6 | A6 |
w:  şek *  *  *  va  *  *  *  e  |  dem    | 


